X:1
T:Set Américain
C:Théodore Duguay
L:1/8
M:C|
I:linebreak $
K:D
V:1 treble
V:1
"Bm" B2 Bc d2 e2 | f2 fg fedc | BABc dcBA |"Em" GFGA "F#" G2 F2 |$
"Bm" B2 Bc d2 e2 | fefg fedc | BABc "Em"dcBA | "F#" Bbfd "Bm" B4 ::$
"D" dAFA DAFA | "A" EAFA "D"DABc |  dAFA DAFA |"Em" e2 df "A" eABc |$
"D" dAFA DAFA | "A" EAFA "D"DABc | "G" dcdf "A" ed Bc |1 dfec "D"dABc :|2  dfec "D"d4 |]
